web-components-icons/e500-image/SVG/make-same-height.svg

<?xml version="1.0" encoding="utf-8"?>
<!-- Generator: Adobe Illustrator 24.2.0, SVG Export Plug-In . SVG Version: 6.00 Build 0)  -->
<svg version="1.1" id="Layer_1" xmlns="http://www.w3.org/2000/svg" xmlns:xlink="http://www.w3.org/1999/xlink" x="0px" y="0px"
	 width="512px" height="512px" viewBox="0 0 512 512" xml:space="preserve">
<path d="M128,0v480H32V0H128z M224,192v96h96v-96H224z M272.1,0l-48.4,64H256v64h33V64h31.6L272.1,0z M288,416v-64h-32v64h-32l48,64
	l48-64H288z M448,0h-96v32h96v96h32V0H448z M448,352v96h-96v32h128V352H448z"/>
</svg>

<svg xmlns="http://www.w3.org/2000/svg" viewBox="0 0 512 512"><title>make-same-height</title><g id="make_same_height" data-name="make same height"><path d="M128,0V480H32V0Zm96,192v96h96V192ZM272,0,224,64h32v64h32.7V64H320Zm16,416V352H256v64H224l48,64,48-64ZM448,0H352V32h96v96h32V0Zm0,352v96H352v32H480V352Z"/></g></svg>
